X:1
T:Title
%%score { 1 | 2 }
L:1/8
M:6/8
K:C
V:1 treble nm="Grand Piano"
V:2 bass 
V:1
 z3 z2[Q:1/4=66] [CE]/[DF]/ | [EG]>[EG][EG] [EG][CE][EG] | [Ec]>[Ec][Ec] [Ec][GB][FA] | %3
 [EG]>[EG][EG] [FA][EG][CE] | [CE][B,D][B,D] [B,D]2 [CE]/[DF]/ | [EG]>[EG][EG] [EG][CE][EG] | %6
 [Gc]>[Gc][Gc] dcA | [EG][CE][EG] [Ec][EG][Ec] | eed [Ec]3 |[M:1/8] c |[M:3/4] c>B AG/E/- E[Ec] | %11
 d>c B[Ec]/[EG]/- [EG][EG] | [FA][GB] [Ac] G2 G |[M:7/8] [^Fc][FB][Fc] [=Fd]3 [FG] | %14
[M:3/4] [Ge]>[Fd] [Ec][EG] [CE][EG] | [Ge]>[Fd] [Ec][EG] [CE][EG] | Ac AG EG | %17
 [Ec]>[Ec] [DB] [Ec]3 |] %18
V:2
 z3 z2 [C,G,] | [C,C]>[C,C][C,C] [C,C][C,G,][C,C] | [C,G,]>[C,G,][C,G,] [C,G,][C,G,][C,C] | %3
 [C,C]>[C,C][C,C] [C,C][C,C][C,G,] | [G,,G,][G,,G,][G,,G,] [G,,G,]2 [C,G,] | %5
 [C,C]>[C,C][C,C] [C,C][C,G,][C,C] | [E,G,]>[E,G,][E,G,] [F,A,F][F,A,F][F,CF] | %7
 [C,C][C,G,][C,C] [C,G,][C,C][C,C] | [G,CG][G,CG][G,B,F][K:bass] [C,G,C]3 |[M:1/8] C | %10
[M:3/4] C>B, A,G,/E,/- E,[C,G,] | [G,B,F]>[G,CF] [G,DF][K:bass][C,C]/[C,C]/- [C,C][C,C] | %12
 [F,C][F,C] [F,C] [E,C]2 [E,G,] |[M:7/8] [D,A,][D,A,][D,A,] [G,B,]3 [G,B,] | %14
[M:3/4] [C,C]>[C,G,] [C,G,][C,C] [C,G,][C,C] | [C,C]>[C,G,] [C,G,][C,C] [C,G,][C,C] | %16
 [F,CF][F,A,F] [F,CF][G,CE] [G,C][G,CE] | [G,,G,]>[G,,G,] [G,,G,] [C,G,]3 |] %18

